packages/tokens/icons/partnershipChecklist/size32Px.svg

<svg viewBox="0 0 32 32" fill="none" xmlns="http://www.w3.org/2000/svg" width="1em" height="1em"><rect x="6.5" y="2.5" width="19" height="27" rx="1.5" stroke="currentColor"/><path d="M12.5 2.5L19.5 2.5V3C19.5 3.82843 18.8284 4.5 18 4.5L14 4.5C13.1716 4.5 12.5 3.82843 12.5 3V2.5Z" stroke="currentColor"/><path d="M15.5 8.5L22.5 8.5M15.5 10.5H20.5" stroke="currentColor" stroke-linecap="round"/><path d="M15.5 15.5L22.5 15.5M15.5 17.5H20.5" stroke="currentColor" stroke-linecap="round"/><path d="M15.5 23.5H22.5M15.5 25.5H20.5" stroke="currentColor" stroke-linecap="round"/><path d="M9.5 9L10.8333 10.5L13.5 7.5" stroke="currentColor" stroke-linecap="round" stroke-linejoin="round"/><path d="M9.5 16L10.8333 17.5L13.5 14.5" stroke="currentColor" stroke-linecap="round" stroke-linejoin="round"/><path d="M9.5 24L10.8333 25.5L13.5 22.5" stroke="currentColor" stroke-linecap="round" stroke-linejoin="round"/></svg>

<svg xmlns="http://www.w3.org/2000/svg" fill="none" viewBox="0 0 32 32" width="1em" height="1em"><rect width="19" height="27" x="6.5" y="2.5" stroke="currentColor" rx="1.5"/><path stroke="currentColor" d="M12.5 2.5h7V3A1.5 1.5 0 0 1 18 4.5h-4A1.5 1.5 0 0 1 12.5 3v-.5Z"/><path stroke="currentColor" stroke-linecap="round" d="M15.5 8.5h7m-7 2h5m-5 5h7m-7 2h5m-5 6h7m-7 2h5"/><path stroke="currentColor" stroke-linecap="round" stroke-linejoin="round" d="m9.5 9 1.333 1.5 2.667-3m-4 8.5 1.333 1.5 2.667-3m-4 9.5 1.333 1.5 2.667-3"/></svg>
